X: 85
T: The BONNETS O' BLUE
%R: jig
B: Jean White "100 Popular Hornpipes, Reels, Jigs and Country Dances", Boston 1880 p.35
F: http://www.loc.gov/resource/sm1880.09124.0#seq-1
Z: 2014 John Chambers <jc:trillian.mit.edu>
N: The 2nd strain has initial repeat but no final repeat; not fixed.
M: 6/8
L: 1/8
K: D
% - - - - - - - - - - - - - - - - - - - - - - - - - - - - -
A |\
dcd fga | ABA ABc | dfb afd | e3- e2A |\
dcd fga | ABA A2b | agf edc | d3- d2 H:|
e/d/ |\
cde efe | A3- A2e/d/ | cde ef^g | a3- a2=g |\
f2e d2c | B2c d2e | fgf edc | B3- B2 :|
A |\
dd/d/d faf | d3- d2A | dfb agf | e3- e2f |\
gfg abc' | d'3 d'c'b | aba gfe | d3- "_D.C."d2 |]
% - - - - - - - - - - - - - - - - - - - - - - - - - - - - -

%%sep 1 1 500
%%sep 1 1 500
